packages/sources/icons/src/vitamix/amazon-fill.svg

<svg width="16" height="16" viewBox="0 0 16 16" xmlns="http://www.w3.org/2000/svg"><path d="M14.6641 12.1533C14.6641 12.638 14.3941 13.5713 13.7881 14.084C13.6668 14.1773 13.5448 14.1247 13.5981 13.9887C13.7748 13.5567 14.1795 12.5573 13.9895 12.3273C13.8561 12.1527 13.3028 12.1653 12.8308 12.206C12.6148 12.2333 12.4261 12.246 12.2788 12.276C12.1434 12.2873 12.1155 12.1673 12.2515 12.074C12.4261 11.9507 12.6148 11.8573 12.8315 11.7887C13.5981 11.5593 14.4848 11.6973 14.6115 11.844C14.6355 11.872 14.6648 11.9507 14.6648 12.1527L14.6641 12.1533ZM13.3835 13.016C13.2074 13.1505 13.0226 13.273 12.8301 13.3827C11.4155 14.2327 9.58345 14.678 7.99145 14.678C5.42945 14.678 3.13812 13.7333 1.39945 12.1527C1.25078 12.0313 1.37412 11.8553 1.54812 11.9507C3.42145 13.044 5.74012 13.7053 8.14078 13.7053C9.65078 13.7053 11.2795 13.4227 12.8308 12.8147C12.9388 12.774 13.0601 12.7187 13.1661 12.68C13.4108 12.57 13.6261 12.842 13.3835 13.016ZM9.27012 5.66267C9.27012 4.96867 9.29745 4.56 9.06745 4.20933C8.86345 3.92067 8.51212 3.74733 8.02212 3.77467C7.49012 3.804 6.91878 4.15267 6.77278 4.792C6.74478 4.93867 6.65878 5.08267 6.48212 5.114L4.85812 4.90733C4.74212 4.88067 4.56612 4.792 4.62345 4.56C4.97212 2.72533 6.54012 2.086 8.02212 2H8.37078C9.18412 2 10.2288 2.23267 10.8975 2.84267C11.7088 3.6 11.6228 4.61733 11.6228 5.72267V8.34067C11.6228 9.126 11.9408 9.474 12.2615 9.88333C12.3481 10.0293 12.3775 10.2013 12.2315 10.32C11.9115 10.61 11.3021 11.1327 10.9535 11.4227C10.8375 11.5113 10.6281 11.5207 10.5468 11.4527C10.0335 11.0227 9.90812 10.784 9.59012 10.3473C9.03678 10.928 8.57278 11.2487 8.02012 11.4227C7.63146 11.5213 7.23175 11.5697 6.83078 11.5667C5.43745 11.5667 4.33345 10.698 4.33345 8.98C4.33345 7.614 5.06012 6.68533 6.13345 6.246C7.20678 5.806 8.76678 5.666 9.26945 5.66333L9.27012 5.66267ZM8.95145 9.124C9.29812 8.54267 9.26945 8.06667 9.26945 7.00067C8.83545 7.00067 8.39878 7.03067 8.02212 7.11933C7.32545 7.32133 6.77278 7.76 6.77278 8.68933C6.77278 9.416 7.15078 9.91067 7.78945 9.91067C7.87745 9.91067 7.95478 9.9 8.02212 9.88067C8.46878 9.75667 8.74745 9.53267 8.95145 9.124Z"/></svg>

<svg width="16" height="16" xmlns="http://www.w3.org/2000/svg"><path d="M14.664 12.153c0 .485-.27 1.418-.876 1.931-.121.093-.243.04-.19-.095.177-.432.582-1.432.391-1.662-.133-.174-.686-.162-1.158-.121-.216.027-.405.04-.552.07-.136.011-.163-.109-.027-.202a2.07 2.07 0 0 1 .58-.285c.766-.23 1.653-.092 1.78.055.024.028.053.107.053.309Zm-1.28.863a5.109 5.109 0 0 1-.554.367c-1.415.85-3.247 1.295-4.839 1.295-2.562 0-4.853-.945-6.592-2.525-.148-.122-.025-.298.15-.202 1.872 1.093 4.191 1.754 6.592 1.754 1.51 0 3.139-.282 4.69-.89.108-.041.23-.096.335-.135.245-.11.46.162.217.336ZM9.27 5.663c0-.694.027-1.103-.203-1.454-.204-.288-.555-.462-1.045-.434-.532.029-1.103.378-1.25 1.017-.027.147-.113.29-.29.322l-1.624-.207c-.116-.026-.292-.115-.235-.347.35-1.835 1.917-2.474 3.4-2.56h.348c.813 0 1.858.233 2.527.843.81.757.725 1.774.725 2.88V8.34c0 .785.318 1.133.639 1.542.086.146.115.318-.03.437-.32.29-.93.813-1.278 1.103-.117.088-.326.098-.407.03-.514-.43-.639-.669-.957-1.106-.553.581-1.017.902-1.57 1.076a4.694 4.694 0 0 1-1.19.144c-1.393 0-2.497-.869-2.497-2.587 0-1.366.727-2.295 1.8-2.734 1.074-.44 2.634-.58 3.136-.583h.001Zm-.319 3.461c.347-.581.318-1.057.318-2.123-.434 0-.87.03-1.247.118-.697.202-1.25.641-1.25 1.57 0 .727.379 1.222 1.017 1.222a.856.856 0 0 0 .233-.03c.447-.124.725-.348.93-.757Z"/></svg>
